packages/sources/icons/src/vitamix/volume-up-line.svg

<svg width="16" height="16" viewBox="0 0 16 16" fill="none" xmlns="http://www.w3.org/2000/svg">
<path fill-rule="evenodd" clip-rule="evenodd" d="M1.33334 10.6667H3.92601H3.92667L7.45534 13.5547C7.55502 13.6364 7.69288 13.6533 7.80937 13.5981C7.92586 13.5429 8.00009 13.4256 8.00001 13.2967V2.70333C8.00009 2.57443 7.92586 2.45704 7.80937 2.40186C7.69288 2.34668 7.55502 2.36361 7.45534 2.44533L3.92601 5.33333H1.33334C0.965149 5.33333 0.666672 5.6318 0.666672 5.99999V9.99999C0.666672 10.3682 0.965149 10.6667 1.33334 10.6667ZM4.402 6.66668L6.66667 4.81334V11.1867L4.402 9.33334H2.00001V6.66668H4.402ZM12.9373 13.4226L11.9933 12.4786C13.2716 11.3412 14.002 9.71107 14 7.99998C14.0017 6.19909 13.1927 4.49308 11.7973 3.35465L12.744 2.40798C14.3882 3.79994 15.3355 5.8457 15.3333 7.99998C15.3333 10.1486 14.4093 12.0813 12.9373 13.4226ZM9.6273 10.1126L10.5753 11.0606C11.4466 10.3266 12 9.22798 12 7.99998C12.001 6.72861 11.3968 5.53267 10.3726 4.77931L9.4133 5.73865C10.1666 6.20998 10.6666 7.04665 10.6666 7.99998C10.6674 8.82746 10.2833 9.60824 9.6273 10.1126Z" fill="#001018"/>
</svg>

<svg width="16" height="16" fill="none" xmlns="http://www.w3.org/2000/svg"><path fill-rule="evenodd" clip-rule="evenodd" d="M1.333 10.667h2.593l3.53 2.888A.333.333 0 0 0 8 13.297V2.703a.333.333 0 0 0-.545-.258L3.926 5.333H1.333A.667.667 0 0 0 .667 6v4c0 .368.298.667.666.667zm3.069-4 2.265-1.854v6.374L4.402 9.333H2V6.667h2.402zm8.535 6.756-.944-.944A5.985 5.985 0 0 0 14 8a5.988 5.988 0 0 0-2.203-4.645l.947-.947A7.317 7.317 0 0 1 15.334 8a7.315 7.315 0 0 1-2.397 5.423zm-3.31-3.31.948.948A3.991 3.991 0 0 0 12 8a3.994 3.994 0 0 0-1.627-3.22l-.96.959A2.663 2.663 0 0 1 10.667 8c0 .827-.384 1.608-1.04 2.113z" fill="#001018"/></svg>
